talent/images/icons/twitter.svg

<svg width="48" height="42" viewBox="0 0 48 42" fill="none" xmlns="http://www.w3.org/2000/svg">
<g id="twitter">
<path id="XMLID_827_" d="M46.9123 4.5504C46.1582 4.88485 45.3829 5.16712 44.5908 5.39628C45.5287 4.33563 46.2437 3.08763 46.6802 1.72196C46.778 1.41584 46.6766 1.08077 46.425 0.880563C46.1737 0.680202 45.8245 0.656202 45.5479 0.820176C43.8655 1.81796 42.0505 2.53501 40.1474 2.95432C38.2303 1.08108 35.6266 0.0150146 32.9348 0.0150146C27.253 0.0150146 22.6305 4.63741 22.6305 10.3191C22.6305 10.7666 22.6588 11.2116 22.7149 11.6504C15.6643 11.0313 9.1095 7.56588 4.60834 2.04449C4.44793 1.84769 4.20081 1.74162 3.9478 1.76191C3.69464 1.78172 3.46718 1.92449 3.33928 2.14389C2.42636 3.7104 1.94372 5.50203 1.94372 7.32495C1.94372 9.80779 2.83017 12.1635 4.39606 14.0042C3.91993 13.8393 3.45789 13.6332 3.01691 13.3884C2.78016 13.2567 2.49123 13.2587 2.25603 13.3935C2.02068 13.5284 1.87312 13.7765 1.86692 14.0476C1.86584 14.0933 1.86584 14.1389 1.86584 14.1852C1.86584 17.8913 3.86047 21.2279 6.91002 23.0465C6.64803 23.0203 6.3862 22.9824 6.12607 22.9327C5.85789 22.8814 5.58212 22.9754 5.40127 23.18C5.22011 23.3844 5.16019 23.6693 5.24365 23.9294C6.37242 27.4535 9.27859 30.0457 12.7919 30.836C9.87797 32.6611 6.54568 33.617 3.04757 33.617C2.31766 33.617 1.58357 33.5741 0.865117 33.4891C0.508214 33.4467 0.166949 33.6574 0.0454006 33.9968C-0.0761478 34.3364 0.052678 34.715 0.356317 34.9096C4.8502 37.791 10.0464 39.314 15.3829 39.314C25.8739 39.314 32.4367 34.3669 36.0948 30.2168C40.6563 25.0419 43.2725 18.1923 43.2725 11.4245C43.2725 11.1417 43.2682 10.8562 43.2595 10.5716C45.0592 9.21569 46.6087 7.5747 47.8695 5.68861C48.061 5.40216 48.0403 5.02358 47.8184 4.75989C47.5968 4.49605 47.2275 4.41073 46.9123 4.5504Z" fill="white"/>
</g>
</svg>

<svg width="48" height="42" fill="none" xmlns="http://www.w3.org/2000/svg"><path d="M46.912 4.55a18.2 18.2 0 01-2.321.846 10.262 10.262 0 002.09-3.674.774.774 0 00-1.133-.902 18.271 18.271 0 01-5.4 2.134A10.355 10.355 0 0032.934.015c-5.682 0-10.305 4.622-10.305 10.304 0 .448.029.893.085 1.331A26.38 26.38 0 014.608 2.044a.773.773 0 00-1.269.1 10.3 10.3 0 00-1.395 5.181c0 2.483.886 4.839 2.452 6.68a8.728 8.728 0 01-1.38-.617.774.774 0 00-1.15.66v.137c0 3.706 1.994 7.043 5.044 8.862a8.897 8.897 0 01-.784-.114.774.774 0 00-.882.996 10.3 10.3 0 007.548 6.907c-2.914 1.825-6.246 2.781-9.744 2.781-.73 0-1.464-.043-2.183-.128a.775.775 0 00-.509 1.42 27.788 27.788 0 0015.027 4.405c10.49 0 17.054-4.947 20.712-9.097 4.561-5.175 7.178-12.025 7.178-18.792 0-.283-.005-.569-.014-.853a20.03 20.03 0 004.61-4.883.774.774 0 00-.957-1.139z" fill="#fff"/></svg>
